svgs/sharp-light/vector-circle.svg

<svg xmlns="http://www.w3.org/2000/svg" viewBox="0 0 512 512"><!--! Font Awesome Pro 6.6.0 by @fontawesome - https://fontawesome.com License - https://fontawesome.com/license (Commercial License) Copyright 2024 Fonticons, Inc. --><path d="M288 32l0 18.4 0 32.5L288 96l-64 0 0-64 64 0zm32 26l0-26 0-32L288 0 224 0 192 0l0 32 0 26C128.6 78.5 78.5 128.6 58 192l-26 0L0 192l0 32 0 64 0 32 32 0 26 0c20.5 63.4 70.6 113.5 134 134l0 26 0 32 32 0 64 0 32 0 0-32 0-26c63.4-20.5 113.5-70.6 134-134l26 0 32 0 0-32 0-64 0-32-32 0-26 0C433.5 128.6 383.4 78.5 320 58zm0 34c45.7 17.9 82.1 54.3 100 100l-4 0-32 0 0 32 0 64 0 32 32 0 4 0c-17.9 45.7-54.3 82.1-100 100l0-4 0-32-32 0-64 0-32 0 0 32 0 4c-45.7-17.9-82.1-54.3-100-100l4 0 32 0 0-32 0-64 0-32-32 0-4 0c17.9-45.7 54.3-82.1 100-100l0 4 0 32 32 0 64 0 32 0 0-32 0-4zM429.1 224s0 0 0 0l32.5 0s0 0 0 0l18.4 0 0 64-64 0 0-64 13.1 0zM288 429.1l0 32.5 0 18.4-64 0 0-64 64 0 0 13.1zM50.4 224s0 0 0 0l32.5 0s0 0 0 0L96 224l0 64-64 0 0-64 18.4 0z"/></svg>

<svg xmlns="http://www.w3.org/2000/svg" viewBox="0 0 512 512"><!--! Font Awesome Pro 6.5.2 by @fontawesome - https://fontawesome.com License - https://fontawesome.com/license (Commercial License) Copyright 2024 Fonticons, Inc. --><path d="M288 32l0 18.4V82.9L288 96H224V32h64zm32 26V32 0H288 224 192V32 58C128.6 78.5 78.5 128.6 58 192H32 0v32 64 32H32 58c20.5 63.4 70.6 113.5 134 134v26 32h32 64 32V480 454c63.4-20.5 113.5-70.6 134-134h26 32V288 224 192H480 454C433.5 128.6 383.4 78.5 320 58zm0 34c45.7 17.9 82.1 54.3 100 100h-4H384v32 64 32h32 4c-17.9 45.7-54.3 82.1-100 100v-4V384H288 224 192v32 4c-45.7-17.9-82.1-54.3-100-100h4 32V288 224 192H96 92c17.9-45.7 54.3-82.1 100-100v4 32h32 64 32V96 92zM429.1 224s0 0 0 0h32.5s0 0 0 0H480v64H416V224h13.1zM288 429.1v32.5l0 18.4H224V416h64l0 13.1zM50.4 224s0 0 0 0H82.9s0 0 0 0H96v64H32V224H50.4z"/></svg>
